X:1
T:Title
%%score { ( 1 3 ) | ( 2 4 ) }
L:1/8
Q:1/4=108
M:4/4
K:Ab
V:1 treble nm="Grand Piano"
V:3 treble 
V:2 bass 
V:4 bass 
V:1
 [CE]2 [A,CF]2 [CG]2 [A,CEA]2 | A2 G2 G4 | [DE]2 [B,DF]2 [DEG]2 [EGd]2 | d>c c>_c =c2- [EAc]2 | %4
w: C.~Austin~Miles * * *||||
 [=EGc]2 [CEGc]2 [EG]2 [CEG]2 | G2 A2 z4 | [FA]2 [FA]2 [FB]2 [FB]2 |[M:7/8] [=Ec]- [Ec]3 [_Ed]2 z | %8
w: ||||
[M:1/8] z |[M:4/4][K:bass] [E,A,CE]2 [E,A,CE]2 [E,A,CE]2[K:treble] [A,CA]2 | z2 G2 G4[K:bass] | %11
w: |||
 [E,G,B,DE]2 [E,G,B,DE]2 [E,G,B,DE]2[K:treble] [DEGB]2 |[M:7/8] z2 [GA]2 A3 |[M:1/8] E | %14
w: |||
[M:4/4] c2 c>c c2 c>c | [Ad]2 [Ad]>[Ad] [A=d]3 [Ad] | [Ae]2 [Ac]>A c2 B2 | [CA]6 z2 |] %18
w: ||||
V:2
 [A,,E,A,]2 [E,,E,]2 [A,,E,A,]2 [D,,E,]2 | [B,,E,B,]2 [E,,E,]2 [B,,E,B,]2 [E,,E,]2 | %2
 [B,,E,B,]2 [E,,E,]2 [B,,E,B,]2 [E,,E,]2 | [A,,E,]2 [E,,E,]2 [A,,E,]2 [E,,E,]2 | %4
 [C,G,C]2 [G,,G,]2 [C,G,C]2 [G,,G,]2 | [C,E,G,B,]2 [C,E,G,B,]2 [F,A,C]2 [F,A,C]2 | %6
 [D,A,]2 [D,A,]2 [D,A,]2 [D,F,]2 |[M:7/8] G,-G,-G,- G,3 z |[M:1/8] E | %9
[M:4/4] A,,2 z z/ F/ A,,2 [E,,E,]2 | [B,,E,]2 [E,,E,]2 [B,,E,]2 z E | B,,2 z z/ F/ B,,2 [E,,E,]2 | %12
[M:7/8] [A,,E,]2 [E,,E,]2 [A,,E,]2 z |[M:1/8] [A,C] | %14
[M:4/4] [A,E]2 [A,E]>[A,E] [_G,A,E]2 [G,A,E]>[G,A,E] | [F,A,]2 [F,A,]>[F,A,] [=E,_C]3 [E,C] | %16
 [E,C]2 [E,E]>[E,CE] [E,A,E]2 [E,G,D]2 | [A,,A,]6 z2 |] %18
V:3
 x8 | [DE]->[DEG] [B,DE]->[B,DEF] D2 [B,DE]2 | x8 | [FA]2 [EA]2 [EA]2 z2 | x8 | %5
 [C=E]->[CEG] [CE]->[CEG] F2 F>G | x8 |[M:7/8] x7 |[M:1/8] x |[M:4/4][K:bass] x6[K:treble] x2 | %10
 [DEA]2 [DE]->[DEF] E2[K:bass] E,2 | x6[K:treble] x2 |[M:7/8] [DEGB]2 [DE]->[DEG] [CE]2 z | %13
[M:1/8] x |[M:4/4] x8 | x8 | x8 | x8 |] %18
V:4
 x8 | x8 | x8 | x8 | x8 | x8 | x8 |[M:7/8] C,- C,3 B,,2 z |[M:1/8] x |[M:4/4] z2 E,,2 z4 | %10
 z4 z2 E,,2 | z2 E,,2 z4 |[M:7/8] x7 |[M:1/8] x |[M:4/4] x8 | x8 | x8 | x8 |] %18

